icon-svg/youtube-music.svg

<?xml version="1.0" encoding="UTF-8" standalone="no"?>
<svg version="1.1" id="Layer_1" viewBox="0 0 24 24"
    xmlns="http://www.w3.org/2000/svg"
    xmlns:svg="http://www.w3.org/2000/svg">
    <path id="XMLID_791_" d="M 12,0 A 12,12 0 0 0 0,12 12,12 0 0 0 12,24.000001 12,12 0 0 0 24.000001,12 12,12 0 0 0 12,0 Z m 0,5.7272729 c 3.463633,0 6.272728,2.8090944 6.272728,6.2727271 0,3.463633 -2.809095,6.272728 -6.272728,6.272728 C 8.5363673,18.272728 5.7272729,15.463633 5.7272729,12 5.7272729,8.5363673 8.5363673,5.7272729 12,5.7272729 Z m 0,0.5454545 C 8.8500034,6.2727274 6.2727274,8.836367 6.2727274,12 c 0,3.163634 2.5636396,5.727273 5.7272726,5.727273 3.163634,0 5.727273,-2.563639 5.727273,-5.727273 C 17.727273,8.836367 15.149998,6.2727274 12,6.2727274 Z M 9.8181821,8.8636366 15.136364,11.863637 9.8181821,15.136364 Z" style="stroke-width:0.999999;fill:#44739e" />
</svg>

<svg xmlns="http://www.w3.org/2000/svg" viewBox="0 0 24 24"><path fill="#44739e" d="M12 0A12 12 0 0 0 0 12a12 12 0 0 0 12 12 12 12 0 0 0 12-12A12 12 0 0 0 12 0m0 5.7273c3.4636 0 6.2727 2.809 6.2727 6.2727 0 3.4636-2.809 6.2727-6.2727 6.2727-3.4636 0-6.2727-2.809-6.2727-6.2727 0-3.4636 2.809-6.2727 6.2727-6.2727m0 .5454c-3.15 0-5.7273 2.5637-5.7273 5.7273S8.8364 17.7273 12 17.7273 17.7273 15.1636 17.7273 12 15.15 6.2727 12 6.2727m-2.1818 2.591 5.3182 3-5.3182 3.2727Z"/></svg>
